svg/u0033_20e3.svg

<svg viewBox="0 0 128 128" xmlns="http://www.w3.org/2000/svg">
  <g>
    <path d="M116.46,3.96h-104c-4.42,0-8,3.58-8,8v104c0,4.42,3.58,8,8,8h104c4.42,0,8-3.58,8-8v-104 C124.46,7.54,120.88,3.96,116.46,3.96z" fill="#427687"/>
    <path d="M122.16,6.26c-1.54-1.46-3.58-2.28-5.7-2.3h-104c-4.42,0-8,3.58-8,8v104 c0.02,2.12,0.84,4.16,2.3,5.7l16.8-16.8h76c3.26-0.01,5.89-2.64,5.9-5.9v-76L122.16,6.26z" fill="#8CAFBF"/>
    <path d="M56.46,60.06c-0.01-0.99,0.79-1.79,1.78-1.8c0.01,0,0.01,0,0.02,0h5c2.97,0.16,5.9-0.81,8.2-2.7 c2-1.8,3-4.3,3-7.6s-0.8-5.7-2.5-7.5s-4.2-2.7-7.7-2.7c-2.71-0.09-5.35,0.83-7.4,2.6c-1.55,1.32-2.55,3.18-2.8,5.2 c-0.12,0.91-0.88,1.59-1.8,1.6h-7.6c-0.99,0.01-1.8-0.78-1.81-1.77c0-0.08,0-0.16,0.01-0.23c0.29-2.63,1.18-5.17,2.6-7.4 c1.9-2.87,4.57-5.16,7.7-6.6c3.43-1.64,7.2-2.46,11-2.4c6.7,0,12,1.7,15.8,5.1s5.7,8.1,5.7,14.1c-0.03,3.07-1.05,6.05-2.9,8.5 c-1.18,1.7-2.67,3.16-4.4,4.3c-0.84,0.6-1.03,1.77-0.42,2.61c0.14,0.2,0.32,0.36,0.52,0.49c2.09,1.12,3.9,2.69,5.3,4.6 c1.97,2.85,2.98,6.24,2.9,9.7c0,6-2.1,10.8-6.2,14.4s-9.6,5.4-16.3,5.4c-6.5,0-11.8-1.7-15.9-5.2c-3.58-2.92-5.78-7.19-6.1-11.8 c-0.09-1.01,0.66-1.9,1.67-1.99c0.04,0,0.08-0.01,0.13-0.01h7.6c0.92,0.01,1.68,0.69,1.8,1.6c0.28,2.15,1.31,4.13,2.9,5.6 c2.22,1.91,5.08,2.91,8,2.8c3.5,0,6.2-0.9,8.2-2.8s3-4.5,3-8s-1-6.3-3.1-8.2s-5.2-2.9-9.3-2.9h-4.8c-0.99,0.01-1.79-0.79-1.8-1.78 c0-0.01,0-0.01,0-0.02V60.06z" fill="#FAFAFA"/>
    <path d="M40.16,12.86c0-2.3-1.6-3-10.8-2.7c-7.7,0.3-11.5,1.2-13.8,4 s-2.9,8.5-3,15.3c0,4.8,0,9.3,2.5,9.3c3.4,0,3.4-7.9,6.2-12.3C26.66,17.76,40.16,15.86,40.16,12.86z" opacity="0.5" fill="#B4E1ED" enable-background="new "/>
  </g>
</svg>

<svg viewBox="0 0 128 128" xmlns="http://www.w3.org/2000/svg">
  <defs/>
  <path d="M116.46,3.96 L12.46,3.96 C8.04,3.96 4.46,7.54 4.46,11.96 L4.46,115.96 C4.46,120.38 8.04,123.96 12.46,123.96 L116.46,123.96 C120.88,123.96 124.46,120.38 124.46,115.96 L124.46,11.96 C124.46,7.54 120.88,3.96 116.46,3.96 Z" fill="#427687"/>
  <path d="M122.16,6.26 C120.62,4.8 118.58,3.98 116.46,3.96 L12.46,3.96 C8.04,3.96 4.46,7.54 4.46,11.96 L4.46,115.96 C4.48,118.08 5.3,120.12 6.76,121.66 L23.56,104.86 L99.56,104.86 C102.82,104.85 105.45,102.22 105.46,98.96 L105.46,22.96 L122.16,6.26 Z" fill="#8CAFBF"/>
  <path d="M56.46,60.06 C56.45,59.07 57.25,58.27 58.24,58.26 C58.25,58.26 58.25,58.26 58.26,58.26 L63.26,58.26 C66.23,58.42 69.16,57.45 71.46,55.56 C73.46,53.76 74.46,51.26 74.46,47.96 C74.46,44.66 73.66,42.26 71.96,40.46 C70.26,38.66 67.76,37.76 64.26,37.76 C61.55,37.67 58.91,38.59 56.86,40.36 C55.31,41.68 54.31,43.54 54.06,45.56 C53.94,46.47 53.18,47.15 52.26,47.16 L44.66,47.16 C43.67,47.17 42.86,46.38 42.85,45.39 C42.85,45.31 42.85,45.23 42.86,45.16 C43.15,42.53 44.04,39.99 45.46,37.76 C47.36,34.89 50.03,32.6 53.16,31.16 C56.59,29.52 60.36,28.7 64.16,28.76 C70.86,28.76 76.16,30.46 79.96,33.86 C83.76,37.26 85.66,41.96 85.66,47.96 C85.63,51.03 84.61,54.01 82.76,56.46 C81.58,58.16 80.09,59.62 78.36,60.76 C77.52,61.36 77.33,62.53 77.94,63.37 C78.08,63.57 78.26,63.73 78.46,63.86 C80.55,64.98 82.36,66.55 83.76,68.46 C85.73,71.31 86.74,74.7 86.66,78.16 C86.66,84.16 84.56,88.96 80.46,92.56 C76.36,96.16 70.86,97.96 64.16,97.96 C57.66,97.96 52.36,96.26 48.26,92.76 C44.68,89.84 42.48,85.57 42.16,80.96 C42.07,79.95 42.82,79.06 43.83,78.97 C43.87,78.97 43.91,78.96 43.96,78.96 L51.56,78.96 C52.48,78.97 53.24,79.65 53.36,80.56 C53.64,82.71 54.67,84.69 56.26,86.16 C58.48,88.07 61.34,89.07 64.26,88.96 C67.76,88.96 70.46,88.06 72.46,86.16 C74.46,84.26 75.46,81.66 75.46,78.16 C75.46,74.66 74.46,71.86 72.36,69.96 C70.26,68.06 67.16,67.06 63.06,67.06 L58.26,67.06 C57.27,67.07 56.47,66.27 56.46,65.28 C56.46,65.27 56.46,65.27 56.46,65.26 L56.46,60.06 Z" fill="#FAFAFA"/>
  <path d="M40.16,12.86 C40.16,10.56 38.56,9.86 29.36,10.16 C21.66,10.46 17.86,11.36 15.56,14.16 C13.26,16.96 12.66,22.66 12.56,29.46 C12.56,34.26 12.56,38.76 15.06,38.76 C18.46,38.76 18.46,30.86 21.26,26.46 C26.66,17.76 40.16,15.86 40.16,12.86 Z" fill="#B4E1ED" opacity="0.5"/>
</svg>
